X:1
T:B minor Daniel Belknap, 1802
T:Anonymous, ca. 1795 886. 886.
T:Williamstown
T:Treble-Tenor-Bass from The Village Compilation, 1806; Counter by B. C. Johnston, 2015.
%%score [ 1 2 3 4 ]
L:1/8
M:4/4
K:D
V:1 treble nm="Treble" snm="Tr."
V:2 treble nm="Counter" snm="C."
V:3 treble-8 nm="Tenor" snm="T."
V:4 bass nm="Bass" snm="B."
V:1
 B4 | B2 F2 F2 B2 | c2 cd e2 f2 | e2 e2 d2 d2 | d2 c2 B2 c2 | f2 e2 d2 c2 | B8 | z4 A4 | %8
w: 1.~Al-|migh- ty King of|heav'n a- * bove, E-|ter- nal source of|truth and love, And|lord of all be-|low,|With|
 d>c BA B2 d2 | cB AB c2 c2 | d2 e2 f2 f2 | f2 ed c2 Bc | d2 c2 B2 ^A2 | B8 |] %14
w: re- * verence * and re-|lig- * ious * fear, Per-|mit thy sup- pliants|to draw * near, And *|at thy feet to|bow.|
V:2
 D4 | D2 F2 F2 E2 | F2 FF E2 F2 | A2 A2 F2 F2 | D2 E2 D2 A2 | B2 c2 B2 c2 | B8 | z4 F4 | %8
w: 2.~Thy|sove- reign fi- at|formed us * first, Thy|breath can blow us|back to dust, Frail,|sin- ful, mor- tal|clay;|'Tis|
 F2 D2 D2 D2 | EF AF E2 F2 | G2 A>G F2 A2 | B2 GF E2 DE | F2 E2 F2 ^A2 | B8 |] %14
w: thine un- doubt- ed|right * to * give Those|earth- ly * bles- sings|we re- * ceive, And *|thine to take a-|way.|
V:3
 B4 | d2 d2 c2 e2 | f2 F2 B2 d2 | c2 c2 d2 B2 | f2 e2 d2 A2 | d2 c2 B2 ^A2 | B8 | z4 d4 | %8
w: 3.~All|things are un- der|thy con- trol, E-|ter- nal wis- dom|rules the whole, E-|du- cing good from|ill;|Sub-|
w: 4.~In|heav'n a- bove, thy|will is done, There,|an- gels wait a-|round thy throne, Thy|coun- sels to o-|bey;|A-|
 f>e dc B2 f2 | ed cd e2 F2 | B2 F>G A2 F2 | Bd cd e2 de | f2 e2 d2 c2 | B8 |] %14
w: mis- * sive * there- fore|we * re- * sign, Our|wills are * swal- lowed|up * in * thine, In *|thy most ho- ly|will.|
w: do- * ring * at thy|feet * they * fall, Con-|fess thee * sove- reign|Lord * of * all, And *|own thy power- ful|sway.|
V:4
 B,4 | B,2 B,2 A,2 G,2 | F,2 F,2 E,2 D,2 | A,2 A,2 B,2 F,2 | D,2 E,2 F,2 A,2 | B,2 E,2 F,2 F,2 | %6
w: 5.~Lord,|may we join the|heav'n- ly throng; May|mor- tals learn th'an-|ge- lic song, Who|dwell be- neath the|
 B,,8 | z4 D,4 | D,2 D,2 E,2 D,2 | A,2 A,2 A,2 F,2 | G,2 F,>E, D,2 A,2 | B,F, G,F, E,2 A,2 | %12
w: sun;|May|eve- ry tongue thy|praise pro- claim, This|be the * un- i-|ver- * sal * theme, "Je-|
 D,2 E,2 F,2 F,2 | B,,8 |] %14
w: ho- vah's will be|done."|

